!!!COM: Robert Franz
!!!CNT: Deutscher
!!!TXO: Deutsche 
!!!OTL: "Voglein, wohin so schnell?"
!!!OPS: Op. 1
!!!ONM: No. 11
!!!ONB: Original key: Ab major
!!!LYR: E. Geibel
!!!ENC: Brian Bice
!!!YOR: Vocal Album, G. Schirmer, Inc., 1907
!!!ODT: 1843/
!!NB: Vocal melody and text only encoded.
**kern	**silbe
*clefG2	*
*k[b-]	*
*M3/4	*
=1	=1
{4a	{Vo2g-
8g	-lein,
8r	.
16r	.
16f	wo-
16g	-hin
16a	so
=2	=2
2cc}	schnell?}
8r	.
{8a	{"Nach
=3	=3
*M3/8	*
8.a	Nor-
16a	-den,
8a	nach
=4	=4
8f	Nor-
8f	-den!
8r	.
=5	=5
8f	Dort
8f	scheint
8f	die
=6	=6
16d	Son-
16d	-ne
8f	nun
8b-	so
=7	=7
4a}	hell,}
8r	.
=8	=8
{8.a	{dort
16a	ist's
8a	nun
=9	=9
4.cc#	Fru2h-
=10	=10
4bn	-ling
8a	ge-
=11	=11
(4.dd	wor-
=12	=12
4.g#)	|
=13	=13
4a}	-den."}
8r	.
=18	=18
4r	.
{8a	{O
=19	=19
*M2/4	*
8.a	Vo2g-
16gn	-lein
8a	mit
8b-	den
=20	=20
8.ccn	Flu2-
16b-	-geln
8a}	bunt,}
16r	.
{16a	{und
=21	=21
8.b-	wenn
16a	du
8b-	kommst
8cc	zum
=22	=22
8.dd	Lin-
16cc	-den-
8b-}	-grund,}
{(16a	{zum
16g)	|
=23	=23
8.f	Hau-
16b-	-se
8a	mei-
8b-	-ner
=24	=24
2cc	Lie-
=25	=25
4f}	-ben,}
8r	.
{8a	{dann
=26	=26
8a	sag'
8a	ihr,
8r	.
16a	dass
16a	ich
=27	=27
8.cc	Tag
16bn	und
8a}	Nacht}
16r	.
{16ee	{von
=28	=28
8.a	ihr
16cc	ge-
8bn	-tra2umt,
8a	an
=29	=29
8.dd	sie
16cc	ge-
8bn}	-dacht,}
16r	.
{16bn	{und
=30	=30
8cc	dass
8b-	ich
(8a	treu
16cc)	|
16b-	ge-
=31	=31
(4.a	-blie-
8g)	|
=32	=32
4f}	-ben.}
4r	.
=34	=34
4r	.
8r	.
{16c	{Und
16c	die
=35	=35
4d	Blu-
8.c	-men
16c	im
=36	=36
4f}	Thal}
8r	.
{8cc	{gru2ss'
=37	=37
8.a	tau-
16f	-send,
8.a	tau-
16g	-send
=38	=38
4f}	Mal!}
4r	.
*-	*-
